public/images/ai23.svg

<svg width="100" height="100" viewBox="0 0 100 100" fill="none" xmlns="http://www.w3.org/2000/svg">
<path d="M15.9714 66.0001C15.6773 65.8748 15.3574 65.9009 15.0507 65.8581C8.17252 64.8928 2.73019 60.0052 1.37 53.2611C0.137797 47.153 2.00462 41.9537 6.72666 37.8158C9.02713 35.8002 11.7602 34.6004 14.8058 34.1786C19.5538 33.5213 23.8289 34.673 27.5425 37.6765C30.4643 40.0409 32.3433 43.0814 33.0758 46.7395C34.0774 51.7419 32.9462 56.2735 29.6642 60.2245C27.2807 63.0958 24.197 64.8787 20.5237 65.6644C19.8858 65.7959 19.2405 65.8892 18.5913 65.9437C18.5278 65.9494 18.4464 65.9134 18.4041 65.9959H18.0339C17.9837 65.9747 17.9297 65.9639 17.8752 65.9639C17.8207 65.9639 17.7667 65.9747 17.7166 65.9959H16.7118C16.5922 65.9529 16.4611 65.9529 16.3416 65.9959L15.9714 66.0001Z" fill="#048BCA"/>
<path d="M98.9999 54.1492C98.9042 54.2014 98.9338 54.3058 98.9217 54.3825C98.7371 55.5185 98.0258 56.1701 96.9338 56.4186C95.9324 56.6494 94.8868 56.612 93.9051 56.31C92.6834 55.9409 92.1128 55.0393 91.9156 53.8537C91.8725 53.561 91.8538 53.2654 91.8595 52.9698C91.8595 50.3073 91.8595 47.6447 91.8664 44.9822C91.8664 44.7212 91.8214 44.6256 91.5322 44.6382C90.943 44.6637 90.3518 44.6382 89.7611 44.6496C89.5971 44.6496 89.5463 44.6042 89.5532 44.444C89.5654 44.1573 89.5627 43.8697 89.5532 43.5831C89.549 43.4437 89.5881 43.3878 89.7388 43.3742C90.1069 43.3406 90.4726 43.2843 90.8336 43.2056C92.0922 42.9331 92.7818 42.1359 93.0235 40.9179C93.1166 40.4039 93.1508 39.8811 93.1256 39.3596C93.1203 39.1857 93.1647 39.1205 93.353 39.1095C93.977 39.0735 94.601 39.027 95.2224 38.9623C95.4567 38.9377 95.4969 39.0119 95.4953 39.2233C95.4853 40.4063 95.4953 41.5893 95.4858 42.7733C95.4858 42.9796 95.5413 43.0344 95.7502 43.0307C96.8338 43.0203 97.9185 43.026 99.0021 43.026V43.1304C98.9807 43.18 98.9697 43.2332 98.9697 43.2871C98.9697 43.3409 98.9807 43.3942 99.0021 43.4437V43.7569C98.9603 44.0567 98.9426 44.3592 98.9492 44.6617C98.9492 44.9357 98.8868 45.0057 98.6234 44.9624C97.9275 44.8475 97.2267 44.7896 96.5239 44.7436C96.2859 44.728 96.0479 44.7269 95.8116 44.729C95.6719 44.729 95.6 44.7948 95.6 44.9352C95.6 45.0135 95.5968 45.0918 95.5968 45.1701C95.5968 48.0224 95.5968 50.8744 95.5968 53.7263C95.5968 53.8218 95.5968 53.9179 95.6032 54.0129C95.6391 54.4164 95.8676 54.6879 96.2669 54.796C96.3687 54.8245 96.4733 54.842 96.5789 54.8482C97.2193 54.88 97.5784 54.5611 97.598 53.9283C97.6117 53.4762 97.598 53.0241 97.6038 52.5709C97.6101 52.2206 97.6895 52.1455 98.0459 52.1376C98.2659 52.1329 98.4864 52.135 98.7064 52.1376C98.8122 52.1376 98.918 52.1408 99.0052 52.217L98.9999 54.1492Z" fill="#048BCA"/>
<path d="M98.9999 43.4468C98.9069 43.3424 98.9291 43.238 98.9999 43.1335V43.4468Z" fill="#49ABD8"/>
<path d="M59.021 45.6692C59.4351 45.1863 59.8328 44.7739 60.2828 44.4162C62.102 42.9644 64.1661 42.4642 66.4491 42.931C68.0975 43.2677 69.0225 44.3875 69.1214 46.0493C69.1822 47.0751 69.1483 48.1015 69.1526 49.1294C69.1589 50.5996 69.1526 52.0697 69.1526 53.5399C69.1526 54.1105 69.3551 54.4049 69.8961 54.6085C70.3293 54.7714 70.7856 54.82 71.2447 54.8231C71.4224 54.8231 71.4917 54.8654 71.4837 55.0538C71.4684 55.401 71.4652 55.7503 71.4837 56.098C71.4959 56.3141 71.4139 56.3517 71.2156 56.3512C68.8982 56.3442 66.5806 56.3423 64.2629 56.3454C63.7758 56.3454 63.7758 56.3454 63.7758 55.8537C63.7758 55.5754 63.7832 55.2966 63.7726 55.0183C63.7674 54.8737 63.8097 54.8205 63.9614 54.8241C64.1819 54.8252 64.4014 54.7957 64.6135 54.7364C65.2751 54.5642 65.5395 54.2399 65.5422 53.5639C65.5474 52.3287 65.5474 51.0931 65.5422 49.8572C65.5395 48.9786 65.5342 48.0999 65.5168 47.2218C65.5069 46.8475 65.4398 46.4769 65.3179 46.1224C64.9911 45.1477 64.2227 44.6851 63.1936 44.8287C61.8921 45.0104 60.8979 45.7016 60.0549 46.6481C59.9216 46.7979 59.801 46.9613 59.6794 47.1179C59.2198 47.7235 58.966 48.3667 58.9993 49.1623C59.0596 50.6038 59.0162 52.0499 59.0162 53.4955C59.0162 54.2619 59.3272 54.6336 60.0856 54.7704C60.1982 54.7907 60.3119 54.8053 60.4256 54.8174C60.7958 54.856 60.7958 54.8549 60.7958 55.235C60.7958 55.5394 60.7905 55.8443 60.7958 56.1481C60.799 56.2844 60.7736 56.3491 60.6112 56.3491C58.1704 56.3442 55.7295 56.3442 53.2883 56.3491C53.145 56.3491 53.109 56.2969 53.1117 56.1674C53.1186 55.7847 53.1202 55.4021 53.1117 55.0189C53.1085 54.8711 53.1561 54.8257 53.3058 54.8257C53.7116 54.8315 54.1159 54.7767 54.5052 54.6633C55.1514 54.4676 55.3884 54.1475 55.3884 53.4798C55.3884 50.9391 55.3884 48.3984 55.3884 45.8577C55.3884 45.2093 55.1652 44.9065 54.5422 44.7013C54.1556 44.5789 53.7507 44.5222 53.3449 44.5337C53.1566 44.5363 53.1048 44.469 53.1112 44.2909C53.1239 43.9349 53.1207 43.5778 53.1112 43.2212C53.1075 43.0761 53.1508 43.0281 53.3037 43.0281C55.1454 43.0329 56.9871 43.0329 58.8285 43.0281C58.9813 43.0281 59.0199 43.0735 59.0189 43.2191C59.012 43.9323 59.0157 44.646 59.0157 45.3596C59.021 45.44 59.021 45.523 59.021 45.6692Z" fill="#048BCA"/>
<path d="M46.856 56.3418C45.5254 56.3418 44.1943 56.3371 42.8638 56.347C42.6612 56.347 42.6115 56.2948 42.62 56.1011C42.6364 55.754 42.6342 55.4052 42.62 55.057C42.6126 54.879 42.6565 54.8158 42.8484 54.8231C43.262 54.8383 43.6766 54.832 44.0907 54.8263C44.3329 54.8231 44.6248 54.8748 44.7512 54.6112C44.8818 54.3392 44.6983 54.111 44.5249 53.909C43.9276 53.2129 43.3283 52.5168 42.7268 51.8207C42.4243 51.4699 42.1165 51.1227 41.8214 50.7656C41.7209 50.6435 41.6659 50.6586 41.5639 50.7656C40.612 51.7555 39.6554 52.7423 38.6944 53.7263C38.6577 53.7638 38.6234 53.8036 38.5918 53.8453C38.2094 54.3527 38.3585 54.7438 38.9916 54.8028C39.4813 54.8487 39.9773 54.831 40.4723 54.8236C40.6585 54.821 40.714 54.8758 40.7071 55.0565C40.6934 55.4219 40.6971 55.7874 40.7071 56.1528C40.7108 56.2985 40.6664 56.346 40.5141 56.3455C38.3987 56.3409 36.2834 56.3409 34.168 56.3455C34.0189 56.3455 33.9691 56.3037 33.9728 56.1549C33.9818 55.7722 33.9803 55.3896 33.9728 55.0064C33.9728 54.8758 34.0056 54.8263 34.1484 54.8216C35.1929 54.7881 36.0618 54.383 36.7979 53.6464C38.0915 52.3527 39.4072 51.0799 40.7198 49.804C40.8468 49.6808 40.8552 49.6134 40.7315 49.4777C39.5902 48.2211 38.4442 46.9686 37.3278 45.6912C36.6594 44.9263 35.8301 44.5588 34.8259 44.552C34.626 44.552 34.5731 44.4961 34.5821 44.3035C34.5985 43.9475 34.5937 43.5904 34.5821 43.2338C34.5778 43.0824 34.6085 43.025 34.7815 43.025C37.3372 43.0309 39.8933 43.0309 42.4497 43.025C42.6057 43.025 42.6686 43.0568 42.6612 43.2249C42.6489 43.5987 42.6489 43.9727 42.6612 44.3468C42.6665 44.5149 42.6036 44.5525 42.4497 44.5468C42.1593 44.5358 41.868 44.5405 41.5776 44.5468C41.3661 44.5499 41.1355 44.5468 41.0244 44.7692C40.9134 44.9916 41.0615 45.1764 41.1937 45.3346C41.7003 45.937 42.218 46.5301 42.7316 47.1263C42.9367 47.3649 43.1483 47.5962 43.3455 47.8436C43.445 47.9674 43.5042 47.9522 43.61 47.8436C44.3324 47.0814 45.0611 46.3244 45.7867 45.5653C45.8342 45.5139 45.8778 45.4591 45.9173 45.4014C46.2082 44.9916 46.076 44.6528 45.5783 44.5698C45.2208 44.5102 44.857 44.5494 44.4963 44.5484C44.3599 44.5484 44.3133 44.5129 44.3165 44.3729C44.3253 43.9817 44.3253 43.5904 44.3165 43.1988C44.3128 43.0558 44.3657 43.0265 44.499 43.0271C46.4289 43.0305 48.3588 43.0305 50.2887 43.0271C50.4585 43.0271 50.4955 43.0834 50.4918 43.2359C50.4819 43.6097 50.4819 43.9836 50.4918 44.3578C50.496 44.5071 50.4421 44.5452 50.2977 44.5567C50.009 44.5797 49.7207 44.623 49.4341 44.6679C48.7667 44.7723 48.222 45.0923 47.745 45.5648C46.6439 46.6554 45.5276 47.7309 44.4085 48.8016C44.2631 48.941 44.2747 49.0104 44.4032 49.1488C45.7913 50.6541 47.1745 52.1637 48.5531 53.6777C49.1877 54.3752 49.9497 54.8111 50.9212 54.82C51.0677 54.82 51.0947 54.8774 51.0926 55.0043C51.0862 55.3697 51.0788 55.7352 51.0926 56.1006C51.101 56.2943 51.0487 56.3476 50.8477 56.346C49.5177 56.3371 48.1866 56.3418 46.856 56.3418Z" fill="#048BCA"/>
<path d="M87.5283 49.2704C87.504 48.4247 87.4225 47.5878 87.2078 46.7645C86.6399 44.5917 85.2818 43.1941 83.048 42.6825C81.7397 42.3744 80.379 42.353 79.0615 42.6198C76.6003 43.1252 74.8784 44.5128 74.0793 46.8971C73.4447 48.7938 73.4632 50.7238 74.0682 52.6189C74.6256 54.3642 75.7806 55.6302 77.5443 56.264C79.1308 56.8331 80.776 56.9886 82.435 56.6618C84.8064 56.1946 86.258 54.7192 86.9714 52.4795C87.0153 52.3412 87.0011 52.2812 86.8376 52.2545C86.4384 52.1903 86.0396 52.1167 85.6472 52.0212C85.4357 51.969 85.3595 52.0316 85.2998 52.23C84.9179 53.5002 84.1004 54.3705 82.8243 54.8085C82.441 54.9387 82.0433 55.0228 81.6396 55.0591C79.886 55.2225 78.5676 54.6169 77.8431 52.9364C77.4047 51.9194 77.2772 50.845 77.2132 49.7559C77.2011 49.5508 77.2566 49.4949 77.4676 49.4949C79.098 49.5038 80.7284 49.5001 82.3594 49.5001C83.9988 49.5001 85.6382 49.497 87.2776 49.5043C87.4659 49.509 87.5341 49.4766 87.5283 49.2704ZM84.0062 48.148C82.9226 48.137 81.838 48.1428 80.7549 48.1428C79.6718 48.1428 78.5866 48.1375 77.5036 48.1474C77.2973 48.1474 77.2608 48.1015 77.2883 47.901C77.3819 47.227 77.5131 46.564 77.7997 45.9412C78.6575 44.0743 81.0415 43.3627 82.6651 44.4919C83.5324 45.0949 83.9422 45.973 84.1326 46.9681C84.1913 47.2746 84.2003 47.5894 84.2426 47.8995C84.2691 48.0916 84.2119 48.1527 84.0062 48.148Z" fill="#048BCA"/>
<path d="M10.0717 46.1417C10.3557 45.8003 10.627 45.463 10.9338 45.1561C12.4499 43.6421 14.275 42.9926 16.4115 43.3095C17.9579 43.5387 18.9108 44.4946 19.2091 46.0096C19.2223 46.0775 19.2398 46.1443 19.262 46.2472C19.6667 45.679 20.1436 45.1644 20.6809 44.716C21.9876 43.6196 23.4901 43.1315 25.2009 43.2458C27.2105 43.38 28.3978 44.5562 28.5146 46.5463C28.5675 47.4156 28.5363 48.2858 28.539 49.1566C28.5442 50.7662 28.539 52.3757 28.539 53.9858C28.539 54.5846 28.7452 54.878 29.3137 55.0873C29.7047 55.2261 30.1185 55.2912 30.5338 55.2794C30.7538 55.2763 30.7982 55.3551 30.7876 55.5483C30.7733 55.8871 30.7712 56.227 30.7876 56.5658C30.7982 56.7704 30.7347 56.8268 30.5274 56.8268C28.2978 56.819 26.0677 56.8221 23.8381 56.8221C23.6884 56.8221 23.5377 56.8133 23.3885 56.8221C23.2394 56.831 23.1685 56.7903 23.1738 56.6222C23.1855 56.2395 23.1844 55.8563 23.1738 55.4736C23.1701 55.3207 23.2267 55.281 23.3722 55.282C23.5928 55.2821 23.8125 55.2519 24.0247 55.1922C24.6546 55.0194 24.919 54.6879 24.9238 54.0437C24.9277 52.8429 24.9277 51.6422 24.9238 50.4414C24.919 49.4673 24.9539 48.4926 24.8952 47.5179C24.8782 47.109 24.8071 46.7041 24.6837 46.3135C24.4193 45.5304 23.8962 45.203 23.0675 45.297C22.0945 45.4077 21.3451 45.9188 20.6962 46.6022C20.1298 47.1984 19.7131 47.8922 19.3656 48.6299C19.3229 48.7347 19.3048 48.8477 19.3127 48.9603C19.3127 50.6484 19.3127 52.3364 19.3127 54.0244C19.3127 54.7182 19.6195 55.0904 20.3091 55.2251C20.4818 55.2599 20.6574 55.2789 20.8337 55.282C20.9781 55.282 21.0103 55.3384 21.0077 55.4684C21.0008 55.8339 20.9934 56.1993 21.0077 56.5648C21.0167 56.7673 20.9596 56.8258 20.748 56.8258C18.5713 56.818 16.3941 56.8211 14.2173 56.8211C14.1821 56.819 14.1468 56.819 14.1116 56.8211C13.9815 56.8368 13.9471 56.7757 13.9487 56.6551C13.9545 56.2552 13.9572 55.8547 13.9487 55.4543C13.945 55.3071 14.0111 55.2852 14.137 55.2831C14.4373 55.2836 14.7352 55.2291 15.0154 55.1223C15.4421 54.9526 15.6907 54.6409 15.6902 54.1826C15.6902 51.9727 15.7319 49.7628 15.6664 47.5523C15.6566 47.1428 15.5862 46.7369 15.4575 46.3474C15.1883 45.5471 14.6552 45.2062 13.8048 45.2928C12.9724 45.3779 12.2855 45.7674 11.6778 46.3103C10.9517 46.9593 10.4583 47.7659 10.0723 48.6445C10.0241 48.7536 10.031 48.8653 10.031 48.9776C10.031 50.6482 10.031 52.3188 10.031 53.9894C10.031 54.7109 10.3377 55.0857 11.0543 55.2215C11.2268 55.2579 11.4026 55.2768 11.5789 55.2779C11.7508 55.2779 11.7836 55.3447 11.7794 55.495C11.7699 55.8516 11.763 56.2092 11.7794 56.5648C11.7905 56.7767 11.7159 56.8221 11.515 56.8211C9.41756 56.8143 7.31963 56.8169 5.22171 56.8169C4.9483 56.8169 4.67489 56.8086 4.402 56.82C4.24335 56.8268 4.18518 56.7809 4.19047 56.6164C4.20157 56.2426 4.20422 55.8678 4.19047 55.4945C4.18359 55.3128 4.25657 55.28 4.41946 55.2789C4.84253 55.2789 5.26561 55.2267 5.66435 55.0779C6.20113 54.8764 6.41478 54.5762 6.41478 54.0098C6.41478 51.4255 6.41161 48.8413 6.41848 46.2576C6.41848 45.7356 6.17839 45.4051 5.70137 45.2166C5.29363 45.0553 4.86633 45.0041 4.43215 45.0015C4.25657 45.0015 4.18148 44.9608 4.18941 44.7703C4.20422 44.4142 4.19946 44.0566 4.18941 43.7005C4.18571 43.5528 4.21426 43.4844 4.38878 43.4854C6.20448 43.4914 8.02018 43.4914 9.83587 43.4854C10.0157 43.4854 10.0326 43.5601 10.0315 43.7037C10.0263 44.4257 10.0284 45.1482 10.0315 45.8702C10.0347 45.9553 10.0077 46.0415 10.0717 46.1417Z" fill="#FEFEFE"/>
</svg>

<svg xmlns="http://www.w3.org/2000/svg" width="100" height="100" fill="none"><path fill="#048BCA" d="M15.971 66c-.294-.125-.614-.1-.92-.142-6.878-.965-12.32-5.853-13.681-12.597-1.232-6.108.635-11.307 5.357-15.445 2.3-2.016 5.033-3.216 8.079-3.637 4.748-.658 9.023.494 12.737 3.497 2.921 2.365 4.8 5.405 5.533 9.063 1.001 5.003-.13 9.535-3.412 13.486-2.383 2.87-5.467 4.654-9.14 5.44q-.958.196-1.933.279c-.063.005-.145-.03-.187.052h-.37a.4.4 0 0 0-.317 0h-1.005a.55.55 0 0 0-.37 0zM99 54.15c-.096.051-.066.156-.078.233-.185 1.136-.896 1.787-1.988 2.036a5.84 5.84 0 0 1-3.029-.109c-1.222-.37-1.792-1.27-1.99-2.456a5.4 5.4 0 0 1-.056-.884q-.002-3.994.007-7.988c0-.26-.045-.356-.334-.344-.589.026-1.18 0-1.77.012-.165 0-.216-.046-.209-.206q.017-.43 0-.86c-.004-.14.035-.196.186-.21q.553-.05 1.095-.168c1.258-.273 1.948-1.07 2.19-2.288a7 7 0 0 0 .102-1.558c-.006-.174.039-.24.227-.25a41 41 0 0 0 1.87-.148c.234-.024.274.05.272.261-.01 1.183 0 2.366-.01 3.55 0 .207.056.261.265.258 1.084-.01 2.168-.005 3.252-.005v.104a.4.4 0 0 0 0 .314v.313q-.063.45-.053.905c0 .274-.062.344-.326.3a22 22 0 0 0-2.1-.218 10 10 0 0 0-.711-.015c-.14 0-.212.066-.212.206l-.003.235v8.556q-.002.144.006.287c.036.403.265.675.664.783q.153.043.312.052c.64.032 1-.287 1.019-.92.014-.452 0-.904.006-1.357.006-.35.085-.425.442-.433q.33-.006.66 0c.106 0 .212.003.3.079z"/><path fill="#49ABD8" d="M99 43.447c-.093-.105-.07-.209 0-.314z"/><path fill="#048BCA" d="M59.021 45.67c.414-.484.812-.896 1.262-1.254 1.819-1.452 3.883-1.952 6.166-1.485 1.648.337 2.573 1.457 2.672 3.118.061 1.026.027 2.053.032 3.08.006 1.47 0 2.94 0 4.41 0 .572.202.866.743 1.07.433.162.89.211 1.349.214.177 0 .247.042.239.23a11 11 0 0 0 0 1.045c.012.216-.07.254-.268.253q-3.477-.01-6.953-.006c-.487 0-.487 0-.487-.491 0-.279.007-.557-.003-.836-.006-.144.037-.197.188-.194q.332.002.653-.088c.661-.172.925-.496.928-1.172q.008-1.852 0-3.707-.001-1.318-.025-2.635a3.7 3.7 0 0 0-.2-1.1c-.326-.974-1.094-1.437-2.123-1.293-1.302.181-2.296.873-3.14 1.82-.132.149-.253.312-.375.469-.46.605-.713 1.249-.68 2.044.06 1.442.017 2.888.017 4.334 0 .766.311 1.138 1.07 1.274q.169.03.34.047c.37.039.37.038.37.418 0 .304-.005.61 0 .913.003.136-.022.201-.185.201q-3.66-.008-7.323 0c-.143 0-.179-.052-.176-.182q.011-.573 0-1.148c-.004-.148.044-.193.194-.193a4 4 0 0 0 1.2-.163c.645-.195.882-.515.882-1.183v-7.622c0-.649-.223-.951-.846-1.157a3.6 3.6 0 0 0-1.197-.167c-.188.002-.24-.065-.234-.243.013-.356.01-.713 0-1.07-.003-.145.04-.193.193-.193q2.762.008 5.524 0c.153 0 .192.046.19.191-.006.713-.002 1.427-.002 2.14.005.081.005.164.005.31M46.856 56.342c-1.33 0-2.662-.005-3.992.005-.203 0-.252-.052-.244-.246a12 12 0 0 0 0-1.044c-.007-.178.037-.241.228-.234.414.015.829.009 1.243.003.242-.003.534.049.66-.215.13-.272-.053-.5-.226-.702a795 795 0 0 0-1.798-2.088c-.303-.351-.61-.698-.906-1.055-.1-.122-.155-.107-.257 0q-1.428 1.484-2.87 2.96a1 1 0 0 0-.102.12c-.383.507-.233.898.4.957.49.046.985.028 1.48.02.186-.002.242.053.235.233-.014.366-.01.731 0 1.097.004.145-.04.193-.193.193q-3.172-.008-6.346 0c-.15 0-.199-.042-.195-.191a27 27 0 0 0 0-1.149c0-.13.033-.18.175-.184 1.045-.034 1.914-.439 2.65-1.176 1.294-1.293 2.61-2.566 3.922-3.842.127-.123.135-.19.011-.326-1.14-1.257-2.287-2.51-3.403-3.787-.669-.765-1.498-1.132-2.502-1.139-.2 0-.253-.056-.244-.248.017-.357.012-.714 0-1.07-.004-.152.026-.209.2-.209q3.833.009 7.668 0c.156 0 .219.032.211.2a17 17 0 0 0 0 1.122c.005.168-.057.206-.211.2-.29-.011-.582-.006-.872 0-.212.003-.443 0-.554.222-.11.223.038.407.17.566.506.602 1.024 1.195 1.538 1.791.205.239.416.47.614.718.099.123.158.108.264 0 .722-.763 1.451-1.52 2.177-2.279a1.4 1.4 0 0 0 .13-.164c.291-.41.159-.748-.339-.831-.357-.06-.721-.02-1.082-.022-.136 0-.183-.035-.18-.175q.015-.587 0-1.174c-.003-.143.05-.172.183-.172q2.895.006 5.79 0c.17 0 .206.056.203.209q-.015.561 0 1.122c.004.15-.05.187-.194.199-.289.023-.577.066-.864.11-.667.105-1.212.425-1.689.898a269 269 0 0 1-3.337 3.237c-.145.139-.133.208-.005.347a976 976 0 0 1 4.15 4.529c.635.697 1.397 1.133 2.368 1.142.147 0 .174.057.172.184-.007.366-.014.731 0 1.097.008.193-.044.247-.245.245-1.33-.009-2.661-.004-3.992-.004M87.528 49.27c-.024-.845-.106-1.682-.32-2.506-.568-2.172-1.926-3.57-4.16-4.082a9.3 9.3 0 0 0-3.987-.062c-2.46.505-4.183 1.893-4.982 4.277-.634 1.897-.616 3.827-.01 5.722.557 1.745 1.712 3.011 3.475 3.645 1.587.57 3.232.725 4.891.398 2.371-.467 3.823-1.943 4.536-4.182.044-.139.03-.199-.133-.225-.4-.065-.798-.138-1.19-.234-.212-.052-.288.01-.348.209-.382 1.27-1.2 2.14-2.476 2.579q-.576.195-1.184.25c-1.754.163-3.072-.442-3.797-2.123-.438-1.017-.566-2.091-.63-3.18-.012-.205.044-.261.255-.261 1.63.009 3.26.005 4.891.005 1.64 0 3.28-.003 4.919.004.188.005.256-.027.25-.234m-3.522-1.122c-1.083-.011-2.168-.005-3.251-.005s-2.168-.005-3.251.004c-.207 0-.243-.045-.216-.246.094-.674.225-1.337.512-1.96.858-1.867 3.242-2.578 4.865-1.45.867.604 1.277 1.482 1.468 2.477.058.307.067.621.11.931.026.193-.031.254-.237.249"/><path fill="#FEFEFE" d="M10.072 46.142c.284-.342.555-.679.862-.986 1.516-1.514 3.341-2.163 5.478-1.846 1.546.229 2.499 1.185 2.797 2.7.013.068.03.134.053.237a8.2 8.2 0 0 1 1.419-1.531c1.307-1.096 2.81-1.584 4.52-1.47 2.01.134 3.197 1.31 3.314 3.3.052.87.021 1.74.024 2.61.005 1.61 0 3.22 0 4.83 0 .599.206.892.775 1.101.39.14.805.204 1.22.192.22-.003.264.076.254.27q-.024.508 0 1.017c.01.204-.053.26-.26.26-2.23-.007-4.46-.004-6.69-.004-.15 0-.3-.009-.45 0-.149.009-.22-.032-.214-.2q.017-.575 0-1.148c-.004-.153.053-.193.198-.192q.332 0 .653-.09c.63-.173.894-.504.899-1.148q.006-1.802 0-3.603c-.005-.974.03-1.948-.029-2.923a4.6 4.6 0 0 0-.211-1.205c-.265-.783-.788-1.11-1.617-1.016-.973.11-1.722.622-2.37 1.305-.567.596-.984 1.29-1.331 2.028a.74.74 0 0 0-.053.33v5.064c0 .694.306 1.066.996 1.201q.26.052.525.057c.144 0 .176.056.174.186-.007.366-.015.731 0 1.097.009.202-.048.26-.26.26-2.177-.007-4.354-.004-6.53-.004a1 1 0 0 0-.106 0c-.13.016-.165-.045-.163-.166.005-.4.008-.8 0-1.2-.004-.148.062-.17.188-.172.3 0 .598-.054.878-.16.427-.17.676-.482.675-.94 0-2.21.042-4.42-.024-6.63-.01-.41-.08-.816-.209-1.206-.269-.8-.802-1.14-1.652-1.054-.833.085-1.52.474-2.127 1.017-.726.65-1.22 1.456-1.606 2.334-.048.11-.041.221-.041.334v5.011c0 .722.307 1.097 1.023 1.233q.26.054.525.056c.172 0 .205.067.2.217-.01.357-.016.714 0 1.07.011.212-.063.257-.264.256-2.097-.007-4.195-.004-6.293-.004-.274 0-.547-.008-.82.003-.159.007-.217-.04-.212-.204q.02-.56 0-1.121c-.006-.182.067-.215.23-.216.423 0 .846-.052 1.244-.201.537-.202.75-.502.75-1.068 0-2.584-.002-5.169.004-7.752 0-.522-.24-.853-.717-1.041-.407-.162-.835-.213-1.269-.215-.175 0-.25-.041-.243-.232.015-.356.01-.713 0-1.07-.003-.147.025-.216.2-.215q2.723.009 5.447 0c.18 0 .197.075.195.219q-.006 1.083 0 2.166c.004.085-.023.172.04.272"/></svg>
